src/assets/icon-sun.svg

<svg width="20" height="20" viewBox="0 0 20 20" fill="none" xmlns="http://www.w3.org/2000/svg">
<g clip-path="url(#clip0)">
<path d="M13.5446 6.45511C12.6451 5.55564 11.3753 4.97363 9.9996 4.97363C8.62394 4.97363 7.3541 5.52919 6.45463 6.45511C5.55516 7.35459 4.97314 8.62443 4.97314 10.0001C4.97314 11.3757 5.55516 12.6456 6.45463 13.5451C7.3541 14.4445 8.62394 15.0265 9.9996 15.0265C11.3753 15.0265 12.6451 14.471 13.5446 13.5451C14.444 12.6456 15.0261 11.3757 15.0261 10.0001C15.0261 8.62443 14.4705 7.35459 13.5446 6.45511Z" fill="#858BB2"/>
<path d="M9.99984 3.4127C10.3702 3.4127 10.6877 3.09524 10.6877 2.72487V0.68783C10.6877 0.31746 10.3702 0 9.99984 0C9.62947 0 9.31201 0.31746 9.31201 0.68783V2.72487C9.31201 3.09524 9.62947 3.4127 9.99984 3.4127Z" fill="#858BB2"/>
<path d="M15.6347 5.3441L17.0897 3.88908C17.3543 3.62453 17.3543 3.20124 17.0897 2.93669C16.8252 2.67214 16.4019 2.67214 16.1373 2.93669L14.6823 4.39172C14.4177 4.65627 14.4177 5.07955 14.6823 5.3441C14.9204 5.60865 15.3437 5.60865 15.6347 5.3441Z" fill="#858BB2"/>
<path d="M19.3123 9.31226H17.2752C16.9049 9.31226 16.5874 9.62972 16.5874 10.0001C16.5874 10.3705 16.9049 10.6879 17.2752 10.6879H19.3123C19.6826 10.6879 20.0001 10.3705 20.0001 10.0001C20.0001 9.62972 19.6826 9.31226 19.3123 9.31226Z" fill="#858BB2"/>
<path d="M15.6083 14.6562C15.3438 14.3916 14.9205 14.3916 14.6559 14.6562C14.3914 14.9207 14.3914 15.344 14.6559 15.6086L16.111 17.0636C16.3755 17.3281 16.7988 17.3281 17.0633 17.0636C17.3279 16.799 17.3279 16.3758 17.0633 16.1112L15.6083 14.6562Z" fill="#858BB2"/>
<path d="M9.99984 16.5872C9.62947 16.5872 9.31201 16.9046 9.31201 17.275V19.312C9.31201 19.6824 9.62947 19.9999 9.99984 19.9999C10.3702 19.9999 10.6877 19.6824 10.6877 19.312V17.275C10.6877 16.9046 10.3702 16.5872 9.99984 16.5872Z" fill="#858BB2"/>
<path d="M4.36486 14.6562L2.90984 16.1112C2.64529 16.3758 2.64529 16.799 2.90984 17.0636C3.17439 17.3281 3.59767 17.3281 3.86222 17.0636L5.31725 15.6086C5.5818 15.344 5.5818 14.9207 5.31725 14.6562C5.07915 14.3916 4.65587 14.3916 4.36486 14.6562Z" fill="#858BB2"/>
<path d="M3.4127 10.0001C3.4127 9.62972 3.09524 9.31226 2.72487 9.31226H0.68783C0.31746 9.31226 0 9.62972 0 10.0001C0 10.3705 0.31746 10.6879 0.68783 10.6879H2.72487C3.09524 10.6879 3.4127 10.3705 3.4127 10.0001Z" fill="#858BB2"/>
<path d="M4.36486 5.3441C4.62942 5.60865 5.0527 5.60865 5.31725 5.3441C5.5818 5.07955 5.5818 4.65627 5.31725 4.39172L3.86222 2.93669C3.59767 2.67214 3.17439 2.67214 2.90984 2.93669C2.64529 3.20124 2.64529 3.62453 2.90984 3.88908L4.36486 5.3441Z" fill="#858BB2"/>
</g>
<defs>
<clipPath id="clip0">
<rect width="20" height="20" fill="white"/>
</clipPath>
</defs>
</svg>

<svg width="20" height="20" fill="none" xmlns="http://www.w3.org/2000/svg"><g clip-path="url(#prefix__clip0)" fill="#858BB2"><path d="M13.545 6.455c-.9-.9-2.17-1.481-3.545-1.481a4.934 4.934 0 00-3.545 1.481c-.9.9-1.482 2.17-1.482 3.545 0 1.376.582 2.646 1.482 3.545.9.9 2.169 1.482 3.545 1.482a4.934 4.934 0 003.545-1.482c.899-.9 1.481-2.17 1.481-3.545a4.934 4.934 0 00-1.481-3.545zM10 3.413a.7.7 0 00.688-.688V.688A.7.7 0 0010 0a.7.7 0 00-.688.688v2.037a.7.7 0 00.688.688zM15.635 5.344L17.09 3.89a.67.67 0 000-.952.67.67 0 00-.953 0l-1.455 1.455a.67.67 0 000 .952c.238.265.662.265.953 0zM19.312 9.312h-2.037a.7.7 0 00-.688.688.7.7 0 00.688.688h2.037A.7.7 0 0020 10a.7.7 0 00-.688-.688zM15.608 14.656a.67.67 0 00-.952 0 .67.67 0 000 .953l1.455 1.455a.67.67 0 00.952 0 .67.67 0 000-.953l-1.455-1.455zM10 16.587a.7.7 0 00-.688.688v2.037A.7.7 0 0010 20a.7.7 0 00.688-.688v-2.037a.7.7 0 00-.688-.688zM4.365 14.656L2.91 16.111a.67.67 0 000 .953.67.67 0 00.952 0l1.455-1.455a.67.67 0 000-.953c-.238-.264-.661-.264-.952 0zM3.413 10a.7.7 0 00-.688-.688H.688A.7.7 0 000 10a.7.7 0 00.688.688h2.037A.7.7 0 003.413 10zM4.365 5.344a.67.67 0 00.952 0 .67.67 0 000-.952L3.862 2.937a.67.67 0 00-.952 0 .67.67 0 000 .952l1.455 1.455z"/></g><defs><clipPath id="prefix__clip0"><path fill="#fff" d="M0 0h20v20H0z"/></clipPath></defs></svg>
